icons/packship_light.svg

<svg width="16" height="16" viewBox="0 0 16 16" fill="none" xmlns="http://www.w3.org/2000/svg">
<mask id="path-1-outside-1_1082_2" maskUnits="userSpaceOnUse" x="3" y="1" width="12" height="14" fill="black">
<rect fill="white" x="3" y="1" width="12" height="14"/>
<path d="M7.5569 9.476C7.4129 9.484 7.3089 9.448 7.2449 9.368C7.1809 9.28 7.1609 9.148 7.1849 8.972C7.2009 8.82 7.2409 8.704 7.3049 8.624C7.3769 8.536 7.4689 8.488 7.5809 8.48C8.3809 8.424 9.1049 8.272 9.7529 8.024C10.4009 7.768 10.9529 7.444 11.4089 7.052C11.8729 6.652 12.2289 6.204 12.4769 5.708C12.7249 5.204 12.8489 4.676 12.8489 4.124C12.8489 3.692 12.7489 3.368 12.5489 3.152C12.3489 2.928 12.0609 2.816 11.6849 2.816C11.3569 2.816 11.0129 2.904 10.6529 3.08C10.2929 3.248 9.9289 3.492 9.5609 3.812C9.2009 4.124 8.8489 4.5 8.5049 4.94C8.1689 5.372 7.8529 5.856 7.5569 6.392C7.2689 6.92 7.0169 7.484 6.8009 8.084L4.9409 13.832C4.9089 13.944 4.8449 14.028 4.7489 14.084C4.6529 14.14 4.5129 14.168 4.3289 14.168C4.1529 14.168 4.0209 14.14 3.9329 14.084C3.8449 14.028 3.8209 13.936 3.8609 13.808L6.9689 4.268C6.7689 4.468 6.5569 4.66 6.3329 4.844C6.1089 5.028 5.8729 5.212 5.6249 5.396C5.3849 5.572 5.1289 5.756 4.8569 5.948C4.6889 6.06 4.5489 6.096 4.4369 6.056C4.3249 6.016 4.2249 5.924 4.1369 5.78C4.0569 5.652 4.0249 5.532 4.0409 5.42C4.0569 5.3 4.1409 5.196 4.2929 5.108C4.7649 4.812 5.2009 4.512 5.6009 4.208C6.0089 3.896 6.3809 3.572 6.7169 3.236C7.0529 2.892 7.3449 2.536 7.5929 2.168C7.6889 2.032 7.7769 1.94 7.8569 1.892C7.9369 1.844 8.0649 1.82 8.2409 1.82C8.4249 1.82 8.5569 1.848 8.6369 1.904C8.7249 1.96 8.7449 2.052 8.6969 2.18L8.0729 4.16C8.4409 3.664 8.8289 3.24 9.2369 2.888C9.6529 2.536 10.0769 2.272 10.5089 2.096C10.9489 1.912 11.3889 1.82 11.8289 1.82C12.2609 1.82 12.6329 1.908 12.9449 2.084C13.2649 2.26 13.5089 2.508 13.6769 2.828C13.8449 3.148 13.9289 3.528 13.9289 3.968C13.9289 4.72 13.7729 5.42 13.4609 6.068C13.1489 6.708 12.7049 7.276 12.1289 7.772C11.5609 8.26 10.8849 8.652 10.1009 8.948C9.3249 9.244 8.4769 9.42 7.5569 9.476Z"/>
</mask>
<path d="M7.5569 9.476C7.4129 9.484 7.3089 9.448 7.2449 9.368C7.1809 9.28 7.1609 9.148 7.1849 8.972C7.2009 8.82 7.2409 8.704 7.3049 8.624C7.3769 8.536 7.4689 8.488 7.5809 8.48C8.3809 8.424 9.1049 8.272 9.7529 8.024C10.4009 7.768 10.9529 7.444 11.4089 7.052C11.8729 6.652 12.2289 6.204 12.4769 5.708C12.7249 5.204 12.8489 4.676 12.8489 4.124C12.8489 3.692 12.7489 3.368 12.5489 3.152C12.3489 2.928 12.0609 2.816 11.6849 2.816C11.3569 2.816 11.0129 2.904 10.6529 3.08C10.2929 3.248 9.9289 3.492 9.5609 3.812C9.2009 4.124 8.8489 4.5 8.5049 4.94C8.1689 5.372 7.8529 5.856 7.5569 6.392C7.2689 6.92 7.0169 7.484 6.8009 8.084L4.9409 13.832C4.9089 13.944 4.8449 14.028 4.7489 14.084C4.6529 14.14 4.5129 14.168 4.3289 14.168C4.1529 14.168 4.0209 14.14 3.9329 14.084C3.8449 14.028 3.8209 13.936 3.8609 13.808L6.9689 4.268C6.7689 4.468 6.5569 4.66 6.3329 4.844C6.1089 5.028 5.8729 5.212 5.6249 5.396C5.3849 5.572 5.1289 5.756 4.8569 5.948C4.6889 6.06 4.5489 6.096 4.4369 6.056C4.3249 6.016 4.2249 5.924 4.1369 5.78C4.0569 5.652 4.0249 5.532 4.0409 5.42C4.0569 5.3 4.1409 5.196 4.2929 5.108C4.7649 4.812 5.2009 4.512 5.6009 4.208C6.0089 3.896 6.3809 3.572 6.7169 3.236C7.0529 2.892 7.3449 2.536 7.5929 2.168C7.6889 2.032 7.7769 1.94 7.8569 1.892C7.9369 1.844 8.0649 1.82 8.2409 1.82C8.4249 1.82 8.5569 1.848 8.6369 1.904C8.7249 1.96 8.7449 2.052 8.6969 2.18L8.0729 4.16C8.4409 3.664 8.8289 3.24 9.2369 2.888C9.6529 2.536 10.0769 2.272 10.5089 2.096C10.9489 1.912 11.3889 1.82 11.8289 1.82C12.2609 1.82 12.6329 1.908 12.9449 2.084C13.2649 2.26 13.5089 2.508 13.6769 2.828C13.8449 3.148 13.9289 3.528 13.9289 3.968C13.9289 4.72 13.7729 5.42 13.4609 6.068C13.1489 6.708 12.7049 7.276 12.1289 7.772C11.5609 8.26 10.8849 8.652 10.1009 8.948C9.3249 9.244 8.4769 9.42 7.5569 9.476Z" fill="white"/>
<path d="M7.5569 9.476L7.60128 10.2748L7.60551 10.2745L7.5569 9.476ZM7.2449 9.368L6.59791 9.83854L6.60872 9.8534L6.62021 9.86776L7.2449 9.368ZM7.1849 8.972L7.97757 9.08009L7.97922 9.06794L7.98051 9.05575L7.1849 8.972ZM7.3049 8.624L6.6857 8.11738L6.68021 8.12424L7.3049 8.624ZM7.5809 8.48L7.52504 7.68195L7.52391 7.68203L7.5809 8.48ZM9.7529 8.024L10.0389 8.77119L10.0468 8.76804L9.7529 8.024ZM11.4089 7.052L11.9304 7.65865L11.9313 7.65793L11.4089 7.052ZM12.4769 5.708L13.1925 6.06578L13.1947 6.06121L12.4769 5.708ZM12.5489 3.152L11.9522 3.68481L11.957 3.69021L11.9619 3.69553L12.5489 3.152ZM10.6529 3.08L10.9912 3.80495L10.9978 3.80189L11.0043 3.79871L10.6529 3.08ZM9.5609 3.812L10.0848 4.41655L10.0858 4.41568L9.5609 3.812ZM8.5049 4.94L7.87465 4.44726L7.87342 4.44885L8.5049 4.94ZM7.5569 6.392L6.85658 6.00526L6.85459 6.00892L7.5569 6.392ZM6.8009 8.084L6.04819 7.81302L6.04377 7.82529L6.03976 7.8377L6.8009 8.084ZM4.9409 13.832L4.17976 13.5857L4.17549 13.5989L4.17168 13.6122L4.9409 13.832ZM3.9329 14.084L3.5034 14.7589L3.5034 14.7589L3.9329 14.084ZM3.8609 13.808L3.1002 13.5602L3.09732 13.5694L3.8609 13.808ZM6.9689 4.268L7.72955 4.51581L6.40322 3.70231L6.9689 4.268ZM5.6249 5.396L6.098 6.04113L6.10158 6.03848L5.6249 5.396ZM4.8569 5.948L5.30066 6.61364L5.30954 6.60772L5.31825 6.60157L4.8569 5.948ZM4.4369 6.056L4.70597 5.30261L4.70597 5.30261L4.4369 6.056ZM4.1369 5.78L4.81956 5.36282L4.8153 5.356L4.1369 5.78ZM4.0409 5.42L4.8329 5.53314L4.83388 5.52573L4.0409 5.42ZM4.2929 5.108L4.69373 5.80034L4.70596 5.79326L4.71793 5.78575L4.2929 5.108ZM5.6009 4.208L6.08497 4.84493L6.08686 4.84349L5.6009 4.208ZM6.7169 3.236L7.28263 3.80172L7.2892 3.79499L6.7169 3.236ZM7.5929 2.168L6.93933 1.70665L6.93433 1.71373L6.92949 1.72092L7.5929 2.168ZM7.8569 1.892L7.4453 1.20601L7.4453 1.20601L7.8569 1.892ZM8.6369 1.904L8.17813 2.55938L8.19255 2.56948L8.2074 2.57893L8.6369 1.904ZM8.6969 2.18L7.94784 1.8991L7.94033 1.91913L7.9339 1.93954L8.6969 2.18ZM8.0729 4.16L7.3099 3.91954L8.71538 4.63668L8.0729 4.16ZM9.2369 2.888L8.72013 2.27726L8.71432 2.28227L9.2369 2.888ZM10.5089 2.096L10.8108 2.8369L10.8175 2.83406L10.5089 2.096ZM12.9449 2.084L12.5518 2.78082L12.5594 2.78497L12.9449 2.084ZM13.6769 2.828L14.3852 2.45613L14.3852 2.45613L13.6769 2.828ZM13.4609 6.068L14.18 6.41857L14.1817 6.41505L13.4609 6.068ZM12.1289 7.772L12.6502 8.3788L12.6509 8.37821L12.1289 7.772ZM10.1009 8.948L9.81833 8.19956L9.81579 8.20053L10.1009 8.948ZM7.51253 8.67723C7.51373 8.67716 7.56098 8.67422 7.63259 8.69901C7.71231 8.72661 7.80017 8.78146 7.8696 8.86824L6.62021 9.86776C6.90543 10.2243 7.31197 10.2908 7.60128 10.2748L7.51253 8.67723ZM7.89189 8.89746C7.95052 8.97807 7.96797 9.05076 7.97287 9.08316C7.97738 9.11287 7.9727 9.11576 7.97757 9.08009L6.39224 8.86391C6.35708 9.12175 6.35535 9.50501 6.59791 9.83854L7.89189 8.89746ZM7.98051 9.05575C7.98364 9.02601 7.9871 9.02049 7.9832 9.03179C7.97908 9.04375 7.96487 9.07966 7.9296 9.12376L6.68021 8.12424C6.4845 8.36887 6.41394 8.65418 6.3893 8.88825L7.98051 9.05575ZM7.92407 9.13059C7.89818 9.16223 7.85667 9.20064 7.79795 9.23127C7.73903 9.26201 7.68215 9.27481 7.6379 9.27797L7.52391 7.68203C7.1893 7.70593 6.89509 7.86154 6.68574 8.11741L7.92407 9.13059ZM7.63677 9.27805C8.50355 9.21737 9.30664 9.05138 10.0388 8.77115L9.46696 7.27685C8.90317 7.49262 8.25825 7.63063 7.52504 7.68195L7.63677 9.27805ZM10.0468 8.76804C10.7649 8.48436 11.397 8.11723 11.9304 7.65865L10.8874 6.44535C10.5088 6.77077 10.0369 7.05164 9.45896 7.27996L10.0468 8.76804ZM11.9313 7.65793C12.467 7.19607 12.8924 6.66592 13.1924 6.06577L11.7614 5.35023C11.5654 5.74208 11.2788 6.10793 10.8866 6.44607L11.9313 7.65793ZM13.1947 6.06121C13.4958 5.44932 13.6489 4.80069 13.6489 4.124H12.0489C12.0489 4.55131 11.954 4.95868 11.7591 5.35479L13.1947 6.06121ZM13.6489 4.124C13.6489 3.58332 13.525 3.02871 13.1359 2.60847L11.9619 3.69553C11.9728 3.70729 12.0489 3.80068 12.0489 4.124H13.6489ZM13.1457 2.61919C12.7571 2.18399 12.227 2.016 11.6849 2.016V3.616C11.8948 3.616 11.9407 3.67201 11.9522 3.68481L13.1457 2.61919ZM11.6849 2.016C11.2111 2.016 10.7471 2.14346 10.3015 2.36129L11.0043 3.79871C11.2787 3.66454 11.5027 3.616 11.6849 3.616V2.016ZM10.3146 2.35505C9.87375 2.56078 9.44796 2.85005 9.03596 3.20832L10.0858 4.41568C10.4098 4.13394 10.7121 3.93522 10.9912 3.80495L10.3146 2.35505ZM9.03696 3.20745C8.63203 3.55839 8.24513 3.9734 7.87466 4.44726L9.13515 5.43274C9.45267 5.0266 9.76978 4.68961 10.0848 4.41655L9.03696 3.20745ZM7.87342 4.44885C7.50898 4.91741 7.17044 5.43695 6.85659 6.00526L8.25721 6.77874C8.53537 6.27505 8.82882 5.82659 9.13638 5.43115L7.87342 4.44885ZM6.85459 6.00892C6.5458 6.57503 6.27726 7.17672 6.04819 7.81302L7.55361 8.35498C7.75654 7.79128 7.992 7.26497 8.25922 6.77508L6.85459 6.00892ZM6.03976 7.8377L4.17976 13.5857L5.70204 14.0783L7.56204 8.3303L6.03976 7.8377ZM4.17168 13.6122C4.18025 13.5822 4.19821 13.5392 4.23256 13.4942C4.26735 13.4485 4.30812 13.415 4.3458 13.393L5.152 14.775C5.43551 14.6096 5.62444 14.3517 5.71012 14.0518L4.17168 13.6122ZM4.3458 13.393C4.36971 13.379 4.38889 13.3712 4.40039 13.3671C4.41184 13.363 4.41732 13.3621 4.41501 13.3625C4.41275 13.363 4.4047 13.3644 4.38977 13.3657C4.37492 13.367 4.35484 13.368 4.3289 13.368V14.968C4.57189 14.968 4.87793 14.9349 5.152 14.775L4.3458 13.393ZM4.3289 13.368C4.30585 13.368 4.28898 13.3671 4.27758 13.366C4.26609 13.365 4.26195 13.364 4.26391 13.3644C4.2658 13.3648 4.27608 13.3671 4.29251 13.3734C4.30905 13.3797 4.33354 13.3907 4.3624 13.4091L3.5034 14.7589C3.78049 14.9353 4.09381 14.968 4.3289 14.968V13.368ZM4.3624 13.4091C4.47089 13.4781 4.57885 13.6018 4.623 13.7711C4.66129 13.9179 4.63167 14.0236 4.62449 14.0466L3.09732 13.5694C3.05014 13.7204 3.01251 13.9361 3.07481 14.1749C3.14295 14.4362 3.30691 14.6339 3.5034 14.7589L4.3624 13.4091ZM4.62155 14.0558L7.72955 4.51581L6.20825 4.02019L3.10025 13.5602L4.62155 14.0558ZM6.40322 3.70231C6.2221 3.88343 6.02947 4.05795 5.82511 4.22582L6.84069 5.46218C7.08434 5.26205 7.31571 5.05257 7.53459 4.83368L6.40322 3.70231ZM5.82511 4.22582C5.61191 4.40095 5.38633 4.57686 5.14822 4.75352L6.10158 6.03848C6.35947 5.84714 6.60589 5.65505 6.84069 5.46218L5.82511 4.22582ZM5.15181 4.75088C4.91612 4.92371 4.66407 5.10489 4.39555 5.29443L5.31825 6.60157C5.59374 6.40711 5.85368 6.22029 6.09799 6.04112L5.15181 4.75088ZM4.41314 5.28236C4.37656 5.30675 4.38261 5.29554 4.42667 5.28421C4.47765 5.2711 4.58173 5.25824 4.70597 5.30261L4.16783 6.80939C4.64414 6.9795 5.06672 6.7696 5.30066 6.61364L4.41314 5.28236ZM4.70597 5.30261C4.76433 5.32345 4.80182 5.35195 4.81955 5.36825C4.83563 5.38305 4.83369 5.38602 4.81953 5.36284L3.45428 6.19716C3.59849 6.43315 3.82416 6.68665 4.16783 6.80939L4.70597 5.30261ZM4.8153 5.356C4.80165 5.33415 4.85134 5.40379 4.83286 5.53314L3.24894 5.30686C3.19846 5.66021 3.31216 5.96985 3.4585 6.204L4.8153 5.356ZM4.83388 5.52573C4.82051 5.62607 4.77855 5.70478 4.73826 5.75467C4.70269 5.7987 4.67738 5.80981 4.69373 5.80034L3.89207 4.41566C3.62661 4.56935 3.30953 4.85222 3.24792 5.31427L4.83388 5.52573ZM4.71793 5.78575C5.20806 5.47838 5.66399 5.16487 6.08497 4.84493L5.11684 3.57107C4.73781 3.85913 4.32174 4.14561 3.86787 4.43025L4.71793 5.78575ZM6.08686 4.84349C6.52072 4.51172 6.91967 4.1646 7.28259 3.80169L6.15122 2.67031C5.84213 2.9794 5.49709 3.28028 5.11494 3.57251L6.08686 4.84349ZM7.2892 3.79499C7.65611 3.41935 7.97925 3.02622 8.25632 2.61508L6.92949 1.72092C6.71056 2.04578 6.44969 2.36465 6.1446 2.67701L7.2892 3.79499ZM8.24648 2.62935C8.27815 2.58447 8.29925 2.56019 8.30902 2.54998C8.31349 2.5453 8.31307 2.54623 8.30755 2.55083C8.30215 2.55532 8.2892 2.56557 8.2685 2.57799L7.4453 1.20601C7.22227 1.33983 7.05696 1.54001 6.93933 1.70665L8.24648 2.62935ZM8.2685 2.57799C8.23353 2.59897 8.20481 2.61053 8.18759 2.61649C8.17871 2.61956 8.17186 2.6215 8.16746 2.62264C8.16304 2.62378 8.16058 2.62425 8.16033 2.6243C8.16016 2.62433 8.16656 2.62315 8.18086 2.62202C8.19502 2.6209 8.21479 2.62 8.2409 2.62V1.02C8.0281 1.02 7.71775 1.04254 7.4453 1.20601L8.2685 2.57799ZM8.2409 2.62C8.26696 2.62 8.28588 2.621 8.29854 2.62213C8.31138 2.62326 8.31527 2.6243 8.3119 2.62359C8.30872 2.62291 8.29444 2.6197 8.27246 2.61099C8.25041 2.60226 8.21686 2.5865 8.17813 2.55938L9.09568 1.24862C8.80655 1.04623 8.46501 1.02 8.2409 1.02V2.62ZM8.2074 2.57893C8.09266 2.50591 7.97661 2.371 7.93616 2.18494C7.90186 2.02717 7.94095 1.91747 7.94784 1.8991L9.44597 2.4609C9.50086 2.31452 9.55394 2.09483 9.49964 1.84506C9.4392 1.567 9.26915 1.35809 9.0664 1.22907L8.2074 2.57893ZM7.9339 1.93954L7.3099 3.91954L8.83591 4.40046L9.45991 2.42046L7.9339 1.93954ZM8.71538 4.63668C9.05328 4.18125 9.402 3.80215 9.75949 3.49372L8.71432 2.28227C8.2558 2.67785 7.82853 3.14675 7.43042 3.68332L8.71538 4.63668ZM9.75366 3.49871C10.1159 3.19221 10.4686 2.97624 10.8107 2.83687L10.2071 1.35513C9.68516 1.56775 9.18992 1.87979 8.72015 2.27729L9.75366 3.49871ZM10.8175 2.83406C11.1681 2.68749 11.5035 2.62 11.8289 2.62V1.02C11.2743 1.02 10.7297 1.13651 10.2003 1.35794L10.8175 2.83406ZM11.8289 2.62C12.1515 2.62 12.3822 2.68511 12.5518 2.78078L13.338 1.38722C12.8836 1.13089 12.3703 1.02 11.8289 1.02V2.62ZM12.5594 2.78497C12.7433 2.88616 12.8744 3.02041 12.9686 3.19987L14.3852 2.45613C14.1434 1.99559 13.7865 1.63384 13.3304 1.38303L12.5594 2.78497ZM12.9686 3.19987C13.0646 3.38281 13.1289 3.6297 13.1289 3.968H14.7289C14.7289 3.4263 14.6252 2.91319 14.3852 2.45613L12.9686 3.19987ZM13.1289 3.968C13.1289 4.60546 12.9976 5.18617 12.7401 5.72095L14.1817 6.41505C14.5482 5.65382 14.7289 4.83454 14.7289 3.968H13.1289ZM12.7418 5.71744C12.4806 6.25323 12.1061 6.73586 11.6069 7.16578L12.6509 8.37821C13.3037 7.81614 13.8172 7.16277 14.18 6.41856L12.7418 5.71744ZM11.6076 7.1652C11.1182 7.58564 10.5254 7.93261 9.81833 8.19957L10.3835 9.69643C11.2444 9.37139 12.0036 8.93436 12.6502 8.3788L11.6076 7.1652ZM9.81579 8.20053C9.12339 8.46464 8.35612 8.62587 7.5083 8.67748L7.60551 10.2745C8.59768 10.2141 9.52641 10.0234 10.386 9.69547L9.81579 8.20053Z" fill="#3F3D56" mask="url(#path-1-outside-1_1082_2)"/>
</svg>

<svg xmlns="http://www.w3.org/2000/svg" width="16" height="16" viewBox="0 0 16 16">
  <path fill="#3F3D56"
    d="M7.56 9.48q-.22.01-.31-.11-.1-.13-.06-.4.04-.23.12-.35.08-.12.28-.14 1.44-.08 2.17-.46.97-.38 1.66-.97.7-.6 1.07-1.34.38-.76.37-1.59 0-.65-.3-.97-.3-.34-.86-.34-.49 0-1.03.26-.56.28-1.1.73-.53.47-1.05 1.13-.5.65-.95 1.45-.43.8-.76 1.7l-1.86 5.74q-.06.18-.19.25-.14.09-.42.09-.26 0-.4-.09-.12-.09-.07-.27l3.1-9.54q-.3.3-.63.58t-.71.55q-.36.26-.77.55-.25.17-.42.11t-.3-.28q-.1-.18-.1-.36.03-.18.26-.31.7-.44 1.3-.9.62-.47 1.12-.97.5-.52.88-1.07.14-.17.26-.28.12-.07.38-.07.28 0 .4.08.13.09.06.28l-.62 1.98q.55-.74 1.16-1.27.63-.53 1.27-.8.66-.27 1.32-.27.65 0 1.12.26.48.27.73.75.25.47.25 1.14 0 1.13-.47 2.1-.46.96-1.33 1.7-.86.73-2.02 1.14-.83.28-2.54.53z" />
</svg>
